images/content/johnson-solids/triangular-orthobicupola.svg

<?xml version="1.0" encoding="UTF-8"?>
<svg xmlns="http://www.w3.org/2000/svg" xmlns:xlink="http://www.w3.org/1999/xlink" width="203pt" height="201pt" viewBox="0 0 203 201" version="1.2">
<g id="surface1">
<path style="fill-rule:nonzero;fill:rgb(43.089294%,49.804688%,82.8125%);fill-opacity:1;stroke-width:7.26;stroke-linecap:round;stroke-linejoin:round;stroke:rgb(0%,0%,0%);stroke-opacity:1;stroke-miterlimit:10;" d="M 1115.078125 -15.585938 L 1277.734375 656.09375 L 1942.460938 1083.085938 " transform="matrix(0.1,0,0,-0.1,0,201)"/>
<path style=" stroke:none;fill-rule:nonzero;fill:rgb(61.131287%,47.288513%,66.992188%);fill-opacity:1;" d="M 127.773438 135.390625 L 120.574219 44.3125 L 194.246094 92.691406 "/>
<path style="fill:none;stroke-width:7.26;stroke-linecap:round;stroke-linejoin:round;stroke:rgb(0%,0%,0%);stroke-opacity:1;stroke-miterlimit:10;" d="M 1277.734375 656.09375 L 1205.742188 1566.875 L 1942.460938 1083.085938 Z M 1277.734375 656.09375 " transform="matrix(0.1,0,0,-0.1,0,201)"/>
<path style="fill-rule:nonzero;fill:rgb(75.389099%,59.959412%,68.359375%);fill-opacity:1;stroke-width:7.26;stroke-linecap:round;stroke-linejoin:round;stroke:rgb(0%,0%,0%);stroke-opacity:1;stroke-miterlimit:10;" d="M 309.960938 1452.34375 L 1205.742188 1566.875 L 1277.734375 656.09375 " transform="matrix(0.1,0,0,-0.1,0,201)"/>
<path style="fill-rule:nonzero;fill:rgb(75.389099%,59.959412%,68.359375%);fill-opacity:1;stroke-width:7.26;stroke-linecap:round;stroke-linejoin:round;stroke:rgb(0%,0%,0%);stroke-opacity:1;stroke-miterlimit:10;" d="M 1277.734375 656.09375 L 399.53125 515.742188 L 309.960938 1452.34375 " transform="matrix(0.1,0,0,-0.1,0,201)"/>
<path style=" stroke:none;fill-rule:nonzero;fill:rgb(71.875%,69.334412%,82.421875%);fill-opacity:1;" d="M 39.953125 149.425781 L 127.773438 135.390625 L 111.507812 202.558594 "/>
<path style="fill:none;stroke-width:7.26;stroke-linecap:round;stroke-linejoin:round;stroke:rgb(0%,0%,0%);stroke-opacity:1;stroke-miterlimit:10;" d="M 399.53125 515.742188 L 1277.734375 656.09375 L 1115.078125 -15.585938 Z M 399.53125 515.742188 " transform="matrix(0.1,0,0,-0.1,0,201)"/>
<path style=" stroke:none;fill-rule:nonzero;fill:rgb(44.700623%,19.700623%,44.091797%);fill-opacity:1;" d="M 152.703125 19.042969 L 194.246094 92.691406 L 120.574219 44.3125 "/>
<path style="fill:none;stroke-width:7.26;stroke-linecap:round;stroke-linejoin:round;stroke:rgb(0%,0%,0%);stroke-opacity:1;stroke-miterlimit:10;" d="M 1527.03125 1819.570312 L 1942.460938 1083.085938 L 1205.742188 1566.875 Z M 1527.03125 1819.570312 " transform="matrix(0.1,0,0,-0.1,0,201)"/>
<path style="fill-rule:nonzero;fill:rgb(60.351562%,9.912109%,2.600098%);fill-opacity:1;stroke-width:7.26;stroke-linecap:round;stroke-linejoin:round;stroke:rgb(0%,0%,0%);stroke-opacity:1;stroke-miterlimit:10;" d="M 1205.742188 1566.875 L 309.960938 1452.34375 L 554.84375 1702.460938 " transform="matrix(0.1,0,0,-0.1,0,201)"/>
<path style="fill-rule:nonzero;fill:rgb(60.351562%,9.912109%,2.600098%);fill-opacity:1;stroke-width:7.26;stroke-linecap:round;stroke-linejoin:round;stroke:rgb(0%,0%,0%);stroke-opacity:1;stroke-miterlimit:10;" d="M 554.84375 1702.460938 L 1527.03125 1819.570312 L 1205.742188 1566.875 " transform="matrix(0.1,0,0,-0.1,0,201)"/>
<path style=" stroke:none;fill-rule:nonzero;fill:rgb(96.09375%,79.296875%,62.889099%);fill-opacity:1;" d="M 39.953125 149.425781 L 6.710938 120.523438 L 30.996094 55.765625 "/>
<path style="fill:none;stroke-width:7.26;stroke-linecap:round;stroke-linejoin:round;stroke:rgb(0%,0%,0%);stroke-opacity:1;stroke-miterlimit:10;" d="M 399.53125 515.742188 L 67.109375 804.765625 L 309.960938 1452.34375 Z M 399.53125 515.742188 " transform="matrix(0.1,0,0,-0.1,0,201)"/>
<path style="fill-rule:nonzero;fill:rgb(0%,0%,0%);fill-opacity:1;stroke-width:7.26;stroke-linecap:round;stroke-linejoin:round;stroke:rgb(0%,0%,0%);stroke-opacity:1;stroke-miterlimit:10;" d="M 837.8125 234.296875 L 67.109375 804.765625 L 399.53125 515.742188 " transform="matrix(0.1,0,0,-0.1,0,201)"/>
<path style="fill-rule:nonzero;fill:rgb(0%,0%,0%);fill-opacity:1;stroke-width:7.26;stroke-linecap:round;stroke-linejoin:round;stroke:rgb(0%,0%,0%);stroke-opacity:1;stroke-miterlimit:10;" d="M 399.53125 515.742188 L 1115.078125 -15.585938 L 837.8125 234.296875 " transform="matrix(0.1,0,0,-0.1,0,201)"/>
<path style=" stroke:none;fill-rule:nonzero;fill:rgb(0%,5.499268%,62.109375%);fill-opacity:1;" d="M 55.484375 30.753906 L 30.996094 55.765625 L 6.710938 120.523438 "/>
<path style="fill:none;stroke-width:7.26;stroke-linecap:round;stroke-linejoin:round;stroke:rgb(0%,0%,0%);stroke-opacity:1;stroke-miterlimit:10;" d="M 554.84375 1702.460938 L 309.960938 1452.34375 L 67.109375 804.765625 Z M 554.84375 1702.460938 " transform="matrix(0.1,0,0,-0.1,0,201)"/>
<path style="fill-rule:nonzero;fill:rgb(43.089294%,49.804688%,82.8125%);fill-opacity:1;stroke-width:7.26;stroke-linecap:round;stroke-linejoin:round;stroke:rgb(0%,0%,0%);stroke-opacity:1;stroke-miterlimit:10;" d="M 1942.460938 1083.085938 L 1819.765625 403.007812 L 1115.078125 -15.585938 " transform="matrix(0.1,0,0,-0.1,0,201)"/>
<path style="fill-rule:nonzero;fill:rgb(93.943787%,83.201599%,71.289062%);fill-opacity:1;stroke-width:7.26;stroke-linecap:round;stroke-linejoin:round;stroke:rgb(0%,0%,0%);stroke-opacity:1;stroke-miterlimit:10;" d="M 1819.765625 403.007812 L 1942.460938 1083.085938 L 1527.03125 1819.570312 " transform="matrix(0.1,0,0,-0.1,0,201)"/>
<path style=" stroke:none;fill-rule:nonzero;fill:rgb(71.09375%,29.197693%,25.193787%);fill-opacity:1;" d="M 111.507812 202.558594 L 181.976562 160.699219 L 83.78125 177.570312 "/>
<path style="fill:none;stroke-width:7.26;stroke-linecap:round;stroke-linejoin:round;stroke:rgb(0%,0%,0%);stroke-opacity:1;stroke-miterlimit:10;" d="M 1115.078125 -15.585938 L 1819.765625 403.007812 L 837.8125 234.296875 Z M 1115.078125 -15.585938 " transform="matrix(0.1,0,0,-0.1,0,201)"/>
<path style="fill-rule:nonzero;fill:rgb(93.943787%,83.201599%,71.289062%);fill-opacity:1;stroke-width:7.26;stroke-linecap:round;stroke-linejoin:round;stroke:rgb(0%,0%,0%);stroke-opacity:1;stroke-miterlimit:10;" d="M 1527.03125 1819.570312 L 1364.335938 1158.164062 L 1819.765625 403.007812 " transform="matrix(0.1,0,0,-0.1,0,201)"/>
<path style=" stroke:none;fill-rule:nonzero;fill:rgb(71.875%,72.068787%,85.15625%);fill-opacity:1;" d="M 152.703125 19.042969 L 55.484375 30.753906 L 136.433594 85.183594 "/>
<path style="fill:none;stroke-width:7.26;stroke-linecap:round;stroke-linejoin:round;stroke:rgb(0%,0%,0%);stroke-opacity:1;stroke-miterlimit:10;" d="M 1527.03125 1819.570312 L 554.84375 1702.460938 L 1364.335938 1158.164062 Z M 1527.03125 1819.570312 " transform="matrix(0.1,0,0,-0.1,0,201)"/>
<path style="fill-rule:nonzero;fill:rgb(62.5%,51.5625%,70.896912%);fill-opacity:1;stroke-width:7.26;stroke-linecap:round;stroke-linejoin:round;stroke:rgb(0%,0%,0%);stroke-opacity:1;stroke-miterlimit:10;" d="M 67.109375 804.765625 L 837.8125 234.296875 L 1364.335938 1158.164062 " transform="matrix(0.1,0,0,-0.1,0,201)"/>
<path style="fill-rule:nonzero;fill:rgb(62.5%,51.5625%,70.896912%);fill-opacity:1;stroke-width:7.26;stroke-linecap:round;stroke-linejoin:round;stroke:rgb(0%,0%,0%);stroke-opacity:1;stroke-miterlimit:10;" d="M 1364.335938 1158.164062 L 554.84375 1702.460938 L 67.109375 804.765625 " transform="matrix(0.1,0,0,-0.1,0,201)"/>
<path style=" stroke:none;fill-rule:nonzero;fill:rgb(76.5625%,56.443787%,62.5%);fill-opacity:1;" d="M 136.433594 85.183594 L 83.78125 177.570312 L 181.976562 160.699219 "/>
<path style="fill:none;stroke-width:7.26;stroke-linecap:round;stroke-linejoin:round;stroke:rgb(0%,0%,0%);stroke-opacity:1;stroke-miterlimit:10;" d="M 1364.335938 1158.164062 L 837.8125 234.296875 L 1819.765625 403.007812 Z M 1364.335938 1158.164062 " transform="matrix(0.1,0,0,-0.1,0,201)"/>
</g>
</svg>

<svg xmlns="http://www.w3.org/2000/svg" width="203pt" height="268" viewBox="0 0 203 201" version="1.2"><path style="fill-rule:nonzero;fill:#6e7fd3;fill-opacity:1;stroke-width:7.26;stroke-linecap:round;stroke-linejoin:round;stroke:#000;stroke-opacity:1;stroke-miterlimit:10" d="m1115.078-15.586 162.656 671.68 664.727 426.992" transform="matrix(.1 0 0 -.1 0 201)"/><path style="stroke:none;fill-rule:nonzero;fill:#9c79ab;fill-opacity:1" d="m127.773 135.39-7.199-91.077 73.672 48.378"/><path style="fill:none;stroke-width:7.26;stroke-linecap:round;stroke-linejoin:round;stroke:#000;stroke-opacity:1;stroke-miterlimit:10" d="m1277.734 656.094-71.992 910.781 736.719-483.79Zm0 0" transform="matrix(.1 0 0 -.1 0 201)"/><path style="fill-rule:nonzero;fill:#c099ae;fill-opacity:1;stroke-width:7.26;stroke-linecap:round;stroke-linejoin:round;stroke:#000;stroke-opacity:1;stroke-miterlimit:10" d="m309.96 1452.344 895.782 114.531 71.992-910.781" transform="matrix(.1 0 0 -.1 0 201)"/><path style="fill-rule:nonzero;fill:#c099ae;fill-opacity:1;stroke-width:7.26;stroke-linecap:round;stroke-linejoin:round;stroke:#000;stroke-opacity:1;stroke-miterlimit:10" d="M1277.734 656.094 399.531 515.742l-89.57 936.602" transform="matrix(.1 0 0 -.1 0 201)"/><path style="stroke:none;fill-rule:nonzero;fill:#b7b1d2;fill-opacity:1" d="m39.953 149.426 87.82-14.035-16.265 67.168"/><path style="fill:none;stroke-width:7.26;stroke-linecap:round;stroke-linejoin:round;stroke:#000;stroke-opacity:1;stroke-miterlimit:10" d="m399.531 515.742 878.203 140.352-162.656-671.68Zm0 0" transform="matrix(.1 0 0 -.1 0 201)"/><path style="stroke:none;fill-rule:nonzero;fill:#723270;fill-opacity:1" d="m152.703 19.043 41.543 73.648-73.672-48.379"/><path style="fill:none;stroke-width:7.26;stroke-linecap:round;stroke-linejoin:round;stroke:#000;stroke-opacity:1;stroke-miterlimit:10" d="m1527.031 1819.57 415.43-736.484-736.719 483.789Zm0 0" transform="matrix(.1 0 0 -.1 0 201)"/><path style="fill-rule:nonzero;fill:#9a1907;fill-opacity:1;stroke-width:7.26;stroke-linecap:round;stroke-linejoin:round;stroke:#000;stroke-opacity:1;stroke-miterlimit:10" d="m1205.742 1566.875-895.781-114.531 244.883 250.117" transform="matrix(.1 0 0 -.1 0 201)"/><path style="fill-rule:nonzero;fill:#9a1907;fill-opacity:1;stroke-width:7.26;stroke-linecap:round;stroke-linejoin:round;stroke:#000;stroke-opacity:1;stroke-miterlimit:10" d="m554.844 1702.46 972.187 117.11-321.289-252.695" transform="matrix(.1 0 0 -.1 0 201)"/><path style="stroke:none;fill-rule:nonzero;fill:#f5caa0;fill-opacity:1" d="M39.953 149.426 6.711 120.523l24.285-64.757"/><path style="fill:none;stroke-width:7.26;stroke-linecap:round;stroke-linejoin:round;stroke:#000;stroke-opacity:1;stroke-miterlimit:10" d="M399.531 515.742 67.11 804.766l242.852 647.578Zm0 0" transform="matrix(.1 0 0 -.1 0 201)"/><path style="fill-rule:nonzero;fill:#000;fill-opacity:1;stroke-width:7.26;stroke-linecap:round;stroke-linejoin:round;stroke:#000;stroke-opacity:1;stroke-miterlimit:10" d="M837.813 234.297 67.109 804.766l332.422-289.024" transform="matrix(.1 0 0 -.1 0 201)"/><path style="fill-rule:nonzero;fill:#000;fill-opacity:1;stroke-width:7.26;stroke-linecap:round;stroke-linejoin:round;stroke:#000;stroke-opacity:1;stroke-miterlimit:10" d="m399.531 515.742 715.547-531.328-277.265 249.883" transform="matrix(.1 0 0 -.1 0 201)"/><path style="stroke:none;fill-rule:nonzero;fill:#000e9e;fill-opacity:1" d="M55.484 30.754 30.996 55.766 6.711 120.523"/><path style="fill:none;stroke-width:7.26;stroke-linecap:round;stroke-linejoin:round;stroke:#000;stroke-opacity:1;stroke-miterlimit:10" d="M554.844 1702.46 309.96 1452.345 67.109 804.766Zm0 0" transform="matrix(.1 0 0 -.1 0 201)"/><path style="fill-rule:nonzero;fill:#6e7fd3;fill-opacity:1;stroke-width:7.26;stroke-linecap:round;stroke-linejoin:round;stroke:#000;stroke-opacity:1;stroke-miterlimit:10" d="m1942.46 1083.086-122.694-680.078-704.688-418.594" transform="matrix(.1 0 0 -.1 0 201)"/><path style="fill-rule:nonzero;fill:#f0d4b6;fill-opacity:1;stroke-width:7.26;stroke-linecap:round;stroke-linejoin:round;stroke:#000;stroke-opacity:1;stroke-miterlimit:10" d="m1819.766 403.008 122.695 680.078-415.43 736.484" transform="matrix(.1 0 0 -.1 0 201)"/><path style="stroke:none;fill-rule:nonzero;fill:#b54a40;fill-opacity:1" d="m111.508 202.559 70.469-41.86L83.78 177.57"/><path style="fill:none;stroke-width:7.26;stroke-linecap:round;stroke-linejoin:round;stroke:#000;stroke-opacity:1;stroke-miterlimit:10" d="m1115.078-15.586 704.688 418.594-981.954-168.711Zm0 0" transform="matrix(.1 0 0 -.1 0 201)"/><path style="fill-rule:nonzero;fill:#f0d4b6;fill-opacity:1;stroke-width:7.26;stroke-linecap:round;stroke-linejoin:round;stroke:#000;stroke-opacity:1;stroke-miterlimit:10" d="m1527.031 1819.57-162.695-661.406 455.43-755.156" transform="matrix(.1 0 0 -.1 0 201)"/><path style="stroke:none;fill-rule:nonzero;fill:#b7b8d9;fill-opacity:1" d="m152.703 19.043-97.219 11.71 80.95 54.43"/><path style="fill:none;stroke-width:7.26;stroke-linecap:round;stroke-linejoin:round;stroke:#000;stroke-opacity:1;stroke-miterlimit:10" d="m1527.031 1819.57-972.187-117.11 809.492-544.296Zm0 0" transform="matrix(.1 0 0 -.1 0 201)"/><path style="fill-rule:nonzero;fill:#9f83b5;fill-opacity:1;stroke-width:7.26;stroke-linecap:round;stroke-linejoin:round;stroke:#000;stroke-opacity:1;stroke-miterlimit:10" d="m67.11 804.766 770.702-570.47 526.524 923.868M1364.336 1158.164l-809.492 544.297L67.109 804.766" transform="matrix(.1 0 0 -.1 0 201)"/><path style="stroke:none;fill-rule:nonzero;fill:#c3909f;fill-opacity:1" d="M136.434 85.184 83.78 177.57l98.196-16.87"/><path style="fill:none;stroke-width:7.26;stroke-linecap:round;stroke-linejoin:round;stroke:#000;stroke-opacity:1;stroke-miterlimit:10" d="M1364.336 1158.164 837.812 234.297l981.954 168.71Zm0 0" transform="matrix(.1 0 0 -.1 0 201)"/></svg>
